X:1
T:Masulka
C:traditionell
R:mazurka
A:St. Peter/Vilnoess, Suedtirol
F:http://simonwascher.info/
Z:noten-transcription: Anja Bartlmae Rainer
F:http://simonwascher.info/
Z:abc transcription: Simon Wascher
Q:1/4=124 %im buch
M:3/4
L:1/8
K:G %Transposed from F
P:A
(3def |\
gz B2 d>g | fz A2 cd | ed ^cdef | gz B2 (3def |\
gz B2 d>g | f2 A2 cd | ed ^cdef | gz g2 :|
K:G %Transposed from Bb
|: (3GAB |\
c>B Ag fe | dg/z/ B4 | cf/z/ A4 | dg/z/ B2 (3GAB |\
c>B Ag fe | dg/z/ B4 | dc Ad cf | gz g2 :|
W:aus Simon Waschers TradArchiv

